src/assets/logo-color.svg

<svg width="180" height="120" viewBox="0 0 180 120" fill="none" xmlns="http://www.w3.org/2000/svg">
<rect width="180" height="120" rx="16" fill="url(#paint0_linear_3_44)"/>
<path d="M83.632 82H58.16V47.888C58.16 44.7307 59.1627 42.192 61.168 40.272C62.5333 38.992 64.0693 38.16 65.776 37.776C67.4827 37.392 69.5733 37.2 72.048 37.2H83.632V42.832H71.216C66.5227 42.832 64.176 44.7947 64.176 48.72V56.016H78.96V61.648H64.176V76.368H83.632V82ZM119.972 37.2V42.832H108.644C104.335 42.832 102.18 44.5813 102.18 48.08C102.18 49.9573 103.119 51.5573 104.996 52.88C106.916 54.16 109.497 55.3973 112.74 56.592C114.191 57.1467 115.428 57.7227 116.452 58.32C117.476 58.8747 118.5 59.6213 119.524 60.56C120.548 61.4987 121.316 62.7147 121.828 64.208C122.34 65.6587 122.596 67.344 122.596 69.264C122.596 71.3973 122.148 73.3173 121.252 75.024C120.356 76.688 119.204 78.0107 117.796 78.992C116.388 79.9307 114.937 80.656 113.444 81.168C111.993 81.6373 110.564 81.8933 109.156 81.936C108.559 81.9787 107.705 82 106.596 82H96.612V76.368H106.404C109.305 76.368 111.673 75.7707 113.508 74.576C115.343 73.3387 116.26 71.5467 116.26 69.2C116.26 68.048 116.004 67.0453 115.492 66.192C114.98 65.296 114.233 64.528 113.252 63.888C112.313 63.248 111.332 62.6933 110.308 62.224C109.327 61.7547 108.132 61.264 106.724 60.752C106.34 60.624 106.041 60.5173 105.828 60.432C99.1293 57.872 95.78 53.6907 95.78 47.888C95.78 44.304 96.932 41.6373 99.236 39.888C101.54 38.096 104.548 37.2 108.26 37.2H119.972Z" fill="white"/>
<rect x="16" y="16" width="66" height="11" rx="5.5" fill="white"/>
<rect x="16" y="93" width="46" height="11" rx="5.5" fill="white"/>
<rect x="78" y="93" width="24" height="11" rx="5.5" fill="white"/>
<rect x="118" y="93" width="46" height="11" rx="5.5" fill="white"/>
<rect x="97" y="16" width="66" height="11" rx="5.5" fill="white"/>
<defs>
<linearGradient id="paint0_linear_3_44" x1="194.4" y1="30" x2="-2.19726" y2="74.2344" gradientUnits="userSpaceOnUse">
<stop stop-color="#984ED4" stop-opacity="0.94"/>
<stop offset="1" stop-color="#3A88A2"/>
</linearGradient>
</defs>
</svg>

<svg xmlns="http://www.w3.org/2000/svg" width="180" height="120" fill="none">
  <rect width="180" height="120" fill="url(#a)" rx="16" />
  <path fill="#fff" d="M83.632 82H58.16V47.888c0-3.157 1.003-5.696 3.008-7.616 1.365-1.28 2.901-2.112 4.608-2.496 1.707-.384 3.797-.576 6.272-.576h11.584v5.632H71.216c-4.693 0-7.04 1.963-7.04 5.888v7.296H78.96v5.632H64.176v14.72h19.456V82Zm36.34-44.8v5.632h-11.328c-4.309 0-6.464 1.75-6.464 5.248 0 1.877.939 3.477 2.816 4.8 1.92 1.28 4.501 2.517 7.744 3.712 1.451.555 2.688 1.13 3.712 1.728 1.024.555 2.048 1.301 3.072 2.24 1.024.939 1.792 2.155 2.304 3.648.512 1.45.768 3.136.768 5.056 0 2.133-.448 4.053-1.344 5.76-.896 1.664-2.048 2.987-3.456 3.968a18.877 18.877 0 0 1-4.352 2.176c-1.451.47-2.88.725-4.288.768-.597.043-1.451.064-2.56.064h-9.984v-5.632h9.792c2.901 0 5.269-.597 7.104-1.792 1.835-1.237 2.752-3.03 2.752-5.376 0-1.152-.256-2.155-.768-3.008-.512-.896-1.259-1.664-2.24-2.304a20.054 20.054 0 0 0-2.944-1.664c-.981-.47-2.176-.96-3.584-1.472a17.11 17.11 0 0 1-.896-.32c-6.699-2.56-10.048-6.741-10.048-12.544 0-3.584 1.152-6.25 3.456-8 2.304-1.792 5.312-2.688 9.024-2.688h11.712Z" />
  <rect width="66" height="11" x="16" y="16" fill="#fff" rx="5.5" />
  <rect width="46" height="11" x="16" y="93" fill="#fff" rx="5.5" />
  <rect width="24" height="11" x="78" y="93" fill="#fff" rx="5.5" />
  <rect width="46" height="11" x="118" y="93" fill="#fff" rx="5.5" />
  <rect width="66" height="11" x="97" y="16" fill="#fff" rx="5.5" />
  <defs>
    <linearGradient id="a" x1="194.4" x2="-2.197" y1="30" y2="74.234" gradientUnits="userSpaceOnUse">
      <stop stop-color="#984ED4" stop-opacity=".94" />
      <stop offset="1" stop-color="#3A88A2" />
    </linearGradient>
  </defs>
</svg>
